docs/logos/mojiokoshin-logo-light.svg

<svg width="755" height="121" viewBox="0 0 755 121" fill="none" xmlns="http://www.w3.org/2000/svg">
<g clip-path="url(#clip0_54_2)">
<path d="M686.52 93.44L692.408 55.552C693.432 49.7494 695.394 44.672 698.296 40.32C701.282 35.968 705.165 32.5974 709.944 30.208C714.808 27.8187 720.525 26.624 727.096 26.624C732.898 26.624 737.89 27.8187 742.072 30.208C746.338 32.512 749.624 35.6694 751.928 39.68C754.232 43.6907 755.384 48.128 755.384 52.992C755.384 53.76 755.341 54.6134 755.256 55.552C755.17 56.4907 755.042 57.4294 754.872 58.368L749.368 93.44H734.776L740.408 57.344C740.493 56.7467 740.536 56.192 740.536 55.68C740.621 55.0827 740.664 54.528 740.664 54.016C740.664 49.5787 739.298 45.9947 736.568 43.264C733.837 40.5334 730.168 39.168 725.56 39.168C722.573 39.168 719.757 39.8934 717.112 41.344C714.552 42.7094 712.376 44.672 710.584 47.232C708.792 49.792 707.597 52.864 707 56.448L701.24 93.44H686.52Z" fill="url(#paint0_linear_54_2)"/>
<path d="M656.704 93.4399L666.944 28.1599H681.664L671.424 93.4399H656.704ZM676.672 19.0719C674.027 19.0719 671.851 18.1759 670.144 16.3839C668.437 14.5919 667.584 12.5013 667.584 10.1119C667.584 8.31993 668.011 6.65593 668.864 5.11993C669.803 3.58393 671.04 2.38926 672.576 1.53593C674.112 0.597262 675.819 0.12793 677.696 0.12793C680.256 0.12793 682.389 0.981262 684.096 2.68793C685.803 4.3946 686.656 6.52793 686.656 9.08793C686.656 10.8799 686.187 12.5439 685.248 14.0799C684.395 15.6159 683.2 16.8533 681.664 17.7919C680.213 18.6453 678.549 19.0719 676.672 19.0719Z" fill="url(#paint1_linear_54_2)"/>
<path d="M583.64 93.44L598.488 0H613.08L607.704 33.792L607.576 34.56C610.904 31.744 614.232 29.7387 617.56 28.544C620.973 27.264 624.216 26.624 627.288 26.624C632.408 26.624 636.845 27.776 640.6 30.08C644.44 32.2987 647.426 35.3707 649.56 39.296C651.693 43.136 652.76 47.488 652.76 52.352C652.76 53.4613 652.632 54.784 652.376 56.32C652.205 57.7707 652.034 59.0507 651.864 60.16L646.488 93.44H631.896L637.272 58.88C637.442 57.9413 637.57 57.0453 637.656 56.192C637.741 55.2533 637.784 54.272 637.784 53.248C637.784 50.2613 637.186 47.744 635.992 45.696C634.882 43.5627 633.218 41.9413 631 40.832C628.866 39.7227 626.264 39.168 623.192 39.168C620.205 39.168 617.346 39.8507 614.616 41.216C611.97 42.5813 609.709 44.5013 607.832 46.976C606.04 49.4507 604.888 52.2667 604.376 55.424L598.36 93.44H583.64Z" fill="url(#paint2_linear_54_2)"/>
<path d="M520.56 93.3117L522.608 80.7677H554.864C556.656 80.7677 558.149 80.4264 559.344 79.7437C560.624 79.0611 561.605 78.1224 562.288 76.9277C563.056 75.7331 563.44 74.4531 563.44 73.0877C563.44 71.2104 562.8 69.6744 561.52 68.4797C560.24 67.1997 558.405 66.5597 556.016 66.5597H545.392C541.296 66.5597 537.754 65.8344 534.768 64.3837C531.866 62.9331 529.605 60.8851 527.984 58.2397C526.448 55.5944 525.68 52.5224 525.68 49.0237C525.68 45.4397 526.576 42.0691 528.368 38.9117C530.245 35.6691 532.933 33.0664 536.432 31.1037C540.016 29.0557 544.41 28.0317 549.616 28.0317H578.928L576.88 40.5757H548.208C546.586 40.5757 545.178 40.9171 543.984 41.5997C542.874 42.1971 542.021 43.0077 541.424 44.0317C540.826 44.9704 540.485 46.0371 540.4 47.2317C540.4 49.1091 540.954 50.6024 542.064 51.7117C543.258 52.8211 545.008 53.3757 547.312 53.3757H557.808C562.074 53.3757 565.658 54.1011 568.56 55.5517C571.546 57.0024 573.808 59.0077 575.344 61.5677C576.965 64.1277 577.776 67.1571 577.776 70.6557C577.776 74.7517 576.752 78.5491 574.704 82.0477C572.741 85.4611 569.925 88.1917 566.256 90.2397C562.586 92.2877 558.277 93.3117 553.328 93.3117H520.56Z" fill="url(#paint3_linear_54_2)"/>
<path d="M479.929 94.976C473.785 94.976 468.281 93.696 463.417 91.136C458.553 88.4907 454.67 84.8214 451.769 80.128C448.868 75.3494 447.417 69.888 447.417 63.744C447.417 58.5387 448.398 53.7174 450.361 49.28C452.409 44.7574 455.14 40.7894 458.553 37.376C462.052 33.9627 466.062 31.3174 470.585 29.44C475.108 27.5627 479.929 26.624 485.049 26.624C491.022 26.624 496.441 27.9467 501.305 30.592C506.169 33.2374 510.009 36.9067 512.825 41.6C515.641 46.2934 517.049 51.7547 517.049 57.984C517.049 63.104 516.11 67.9254 514.233 72.448C512.356 76.8854 509.71 80.8107 506.297 84.224C502.884 87.6374 498.916 90.2827 494.393 92.16C489.956 94.0374 485.134 94.976 479.929 94.976ZM480.697 82.432C485.134 82.432 488.974 81.28 492.217 78.976C495.46 76.672 497.934 73.728 499.641 70.144C501.348 66.4747 502.201 62.592 502.201 58.496C502.201 54.7414 501.433 51.4134 499.897 48.512C498.361 45.6107 496.228 43.3494 493.497 41.728C490.766 40.0214 487.566 39.168 483.897 39.168C479.63 39.168 475.876 40.2774 472.633 42.496C469.39 44.7147 466.83 47.6587 464.953 51.328C463.161 54.912 462.265 58.8374 462.265 63.104C462.265 66.688 463.033 69.9734 464.569 72.96C466.105 75.8614 468.281 78.1654 471.097 79.872C473.913 81.5787 477.113 82.432 480.697 82.432Z" fill="url(#paint4_linear_54_2)"/>
<path d="M376.569 93.44L391.417 0H406.009L397.433 54.272H411.641L433.273 28.16H449.529L424.441 56.832C429.817 58.1973 433.785 60.8853 436.345 64.896C438.991 68.8213 440.313 73.3867 440.313 78.592C440.313 79.4453 440.271 80.3413 440.185 81.28C440.1 82.2187 439.972 83.2 439.801 84.224L438.265 93.44H423.545L425.081 83.2C425.167 82.688 425.252 82.176 425.337 81.664C425.423 81.0667 425.465 80.512 425.465 80C425.465 76.2453 424.313 73.1307 422.009 70.656C419.705 68.1813 416.335 66.944 411.897 66.944H395.513L391.289 93.44H376.569Z" fill="url(#paint5_linear_54_2)"/>
<path d="M336.299 94.976C330.155 94.976 324.651 93.696 319.787 91.136C314.923 88.4907 311.04 84.8214 308.139 80.128C305.238 75.3494 303.787 69.888 303.787 63.744C303.787 58.5387 304.768 53.7174 306.731 49.28C308.779 44.7574 311.51 40.7894 314.923 37.376C318.422 33.9627 322.432 31.3174 326.955 29.44C331.478 27.5627 336.299 26.624 341.419 26.624C347.392 26.624 352.811 27.9467 357.675 30.592C362.539 33.2374 366.379 36.9067 369.195 41.6C372.011 46.2934 373.419 51.7547 373.419 57.984C373.419 63.104 372.48 67.9254 370.603 72.448C368.726 76.8854 366.08 80.8107 362.667 84.224C359.254 87.6374 355.286 90.2827 350.763 92.16C346.326 94.0374 341.504 94.976 336.299 94.976ZM337.067 82.432C341.504 82.432 345.344 81.28 348.587 78.976C351.83 76.672 354.304 73.728 356.011 70.144C357.718 66.4747 358.571 62.592 358.571 58.496C358.571 54.7414 357.803 51.4134 356.267 48.512C354.731 45.6107 352.598 43.3494 349.867 41.728C347.136 40.0214 343.936 39.168 340.267 39.168C336 39.168 332.246 40.2774 329.003 42.496C325.76 44.7147 323.2 47.6587 321.323 51.328C319.531 54.912 318.635 58.8374 318.635 63.104C318.635 66.688 319.403 69.9734 320.939 72.96C322.475 75.8614 324.651 78.1654 327.467 79.872C330.283 81.5787 333.483 82.432 337.067 82.432Z" fill="url(#paint6_linear_54_2)"/>
<path d="M347.307 3.83984L333.611 19.5838H347.563L361.259 3.83984H347.307Z" fill="#5865F2"/>
<path d="M252.332 93.4399L262.572 28.1599H277.292L267.052 93.4399H252.332ZM272.3 19.0719C269.655 19.0719 267.479 18.1759 265.772 16.3839C264.065 14.5919 263.212 12.5013 263.212 10.1119C263.212 8.31993 263.639 6.65593 264.492 5.11993C265.431 3.58393 266.668 2.38926 268.204 1.53593C269.74 0.597262 271.447 0.12793 273.324 0.12793C275.884 0.12793 278.017 0.981262 279.724 2.68793C281.431 4.3946 282.284 6.52793 282.284 9.08793C282.284 10.8799 281.815 12.5439 280.876 14.0799C280.023 15.6159 278.828 16.8533 277.292 17.7919C275.841 18.6453 274.177 19.0719 272.3 19.0719Z" fill="#252525"/>
<path d="M213.583 121.344C208.548 121.344 204.751 119.808 202.191 116.736C199.545 113.664 198.223 109.824 198.223 105.216C198.223 100.949 199.332 96.3413 201.551 91.3919C203.684 86.4426 206.969 81.5786 211.407 76.7999C215.929 71.9359 221.561 67.6693 228.303 63.9999L230.991 75.9039C226.553 78.8906 222.927 82.0906 220.111 85.5039C217.295 88.8319 215.204 92.0319 213.839 95.1039C212.559 98.2613 211.919 101.035 211.919 103.424C211.919 105.131 212.217 106.453 212.815 107.392C213.497 108.416 214.436 108.928 215.631 108.928C217.081 108.928 218.191 108.416 218.959 107.392C219.812 106.453 220.452 105.216 220.879 103.68C221.305 102.144 221.604 100.523 221.775 98.8159L225.871 73.7279L226.511 69.2479L232.911 28.1599H247.631L237.007 95.9999C236.495 99.3279 235.727 102.485 234.703 105.472C233.679 108.459 232.271 111.147 230.479 113.536C228.772 115.925 226.511 117.803 223.695 119.168C220.964 120.619 217.593 121.344 213.583 121.344ZM242.511 19.0719C239.865 19.0719 237.689 18.1759 235.983 16.3839C234.276 14.5919 233.423 12.5013 233.423 10.1119C233.423 8.31993 233.849 6.65593 234.703 5.11993C235.641 3.58393 236.879 2.38926 238.415 1.53593C239.951 0.597262 241.657 0.12793 243.535 0.12793C246.095 0.12793 248.228 0.981262 249.935 2.68793C251.641 4.3946 252.495 6.52793 252.495 9.08793C252.495 10.8799 252.025 12.5439 251.087 14.0799C250.233 15.6159 249.039 16.8533 247.503 17.7919C246.052 18.6453 244.388 19.0719 242.511 19.0719Z" fill="#252525"/>
<path d="M168.996 94.976C162.852 94.976 157.348 93.696 152.484 91.136C147.62 88.4907 143.738 84.8214 140.836 80.128C137.935 75.3494 136.484 69.888 136.484 63.744C136.484 58.5387 137.466 53.7174 139.428 49.28C141.476 44.7574 144.207 40.7894 147.62 37.376C151.119 33.9627 155.13 31.3174 159.652 29.44C164.175 27.5627 168.996 26.624 174.116 26.624C180.09 26.624 185.508 27.9467 190.372 30.592C195.236 33.2374 199.076 36.9067 201.892 41.6C204.708 46.2934 206.116 51.7547 206.116 57.984C206.116 63.104 205.178 67.9254 203.3 72.448C201.423 76.8854 198.778 80.8107 195.364 84.224C191.951 87.6374 187.983 90.2827 183.46 92.16C179.023 94.0374 174.202 94.976 168.996 94.976ZM169.764 82.432C174.202 82.432 178.042 81.28 181.284 78.976C184.527 76.672 187.002 73.728 188.708 70.144C190.415 66.4747 191.268 62.592 191.268 58.496C191.268 54.7414 190.5 51.4134 188.964 48.512C187.428 45.6107 185.295 43.3494 182.564 41.728C179.834 40.0214 176.634 39.168 172.964 39.168C168.698 39.168 164.943 40.2774 161.7 42.496C158.458 44.7147 155.898 47.6587 154.02 51.328C152.228 54.912 151.332 58.8374 151.332 63.104C151.332 66.688 152.1 69.9734 153.636 72.96C155.172 75.8614 157.348 78.1654 160.164 79.872C162.98 81.5787 166.18 82.432 169.764 82.432Z" fill="#252525"/>
<path d="M61.312 94.9757C56.7893 94.9757 52.864 94.037 49.536 92.1597C46.2933 90.2824 43.776 87.765 41.984 84.6077C40.192 81.365 39.296 77.6957 39.296 73.5997C39.296 72.661 39.3387 71.637 39.424 70.5277C39.5947 69.4184 39.7653 68.309 39.936 67.1997L46.208 28.2877C46.2933 27.6904 46.336 27.0504 46.336 26.3677C46.4213 25.685 46.464 25.0877 46.464 24.5757C46.464 22.0157 45.6107 19.925 43.904 18.3037C42.2827 16.597 40.1493 15.7437 37.504 15.7437C35.5413 15.7437 33.7067 16.1704 32 17.0237C30.3787 17.877 29.0133 19.0717 27.904 20.6077C26.88 22.0584 26.24 23.8504 25.984 25.9837L15.36 93.4397H0L10.368 27.9037C11.2213 22.4424 12.8427 17.8344 15.232 14.0797C17.6213 10.2397 20.8213 7.33838 24.832 5.37571C28.928 3.32771 33.7493 2.30371 39.296 2.30371C43.9893 2.30371 48 3.24238 51.328 5.11971C54.7413 6.99704 57.344 9.55704 59.136 12.7997C60.928 16.0424 61.824 19.7117 61.824 23.8077C61.824 24.661 61.7387 25.557 61.568 26.4957C61.4827 27.4344 61.3547 28.373 61.184 29.3117L54.912 68.9917C54.8267 69.7597 54.7413 70.485 54.656 71.1677C54.5707 71.8504 54.528 72.4477 54.528 72.9597C54.528 75.605 55.3387 77.6957 56.96 79.2317C58.5813 80.7677 60.6293 81.5357 63.104 81.5357C66.176 81.5357 68.7787 80.597 70.912 78.7197C73.1307 76.757 74.4533 74.197 74.88 71.0397L81.664 27.9037C82.5173 22.4424 84.1387 17.8344 86.528 14.0797C89.0027 10.2397 92.2453 7.33838 96.256 5.37571C100.267 3.32771 105.045 2.30371 110.592 2.30371C115.371 2.30371 119.424 3.24238 122.752 5.11971C126.08 6.99704 128.64 9.55704 130.432 12.7997C132.224 16.0424 133.12 19.7117 133.12 23.8077C133.12 24.661 133.077 25.557 132.992 26.4957C132.907 27.4344 132.779 28.3304 132.608 29.1837L122.496 93.4397H107.136L117.504 28.0317C117.589 27.605 117.632 27.0504 117.632 26.3677C117.717 25.5997 117.76 25.0024 117.76 24.5757C117.76 22.0157 116.907 19.925 115.2 18.3037C113.579 16.597 111.445 15.7437 108.8 15.7437C106.837 15.7437 105.003 16.1704 103.296 17.0237C101.675 17.877 100.309 19.0717 99.2 20.6077C98.176 22.0584 97.536 23.8504 97.28 25.9837L90.368 69.3757C89.6 74.7517 87.9787 79.3597 85.504 83.1997C83.0293 87.0397 79.7867 89.9837 75.776 92.0317C71.7653 93.9944 66.944 94.9757 61.312 94.9757Z" fill="#5865F2"/>
</g>
<defs>
<linearGradient id="paint0_linear_54_2" x1="-15.1999" y1="48.44" x2="770.8" y2="48.44" gradientUnits="userSpaceOnUse">
<stop offset="0.721154" stop-color="#252525"/>
<stop offset="1" stop-color="#B4B4B4"/>
</linearGradient>
<linearGradient id="paint1_linear_54_2" x1="-15.2003" y1="48.4399" x2="770.8" y2="48.4399" gradientUnits="userSpaceOnUse">
<stop offset="0.721154" stop-color="#252525"/>
<stop offset="1" stop-color="#B4B4B4"/>
</linearGradient>
<linearGradient id="paint2_linear_54_2" x1="-10.1998" y1="48.44" x2="775.8" y2="48.44" gradientUnits="userSpaceOnUse">
<stop offset="0.721154" stop-color="#252525"/>
<stop offset="1" stop-color="#B4B4B4"/>
</linearGradient>
<linearGradient id="paint3_linear_54_2" x1="-7.1999" y1="48.4397" x2="778.8" y2="48.4397" gradientUnits="userSpaceOnUse">
<stop offset="0.721154" stop-color="#252525"/>
<stop offset="1" stop-color="#B4B4B4"/>
</linearGradient>
<linearGradient id="paint4_linear_54_2" x1="-5.20047" y1="48.44" x2="780.8" y2="48.44" gradientUnits="userSpaceOnUse">
<stop offset="0.721154" stop-color="#252525"/>
<stop offset="1" stop-color="#B4B4B4"/>
</linearGradient>
<linearGradient id="paint5_linear_54_2" x1="-0.200102" y1="48.44" x2="785.8" y2="48.44" gradientUnits="userSpaceOnUse">
<stop offset="0.721154" stop-color="#252525"/>
<stop offset="1" stop-color="#B4B4B4"/>
</linearGradient>
<linearGradient id="paint6_linear_54_2" x1="2.79969" y1="48.4399" x2="788.8" y2="48.4399" gradientUnits="userSpaceOnUse">
<stop offset="0.721154" stop-color="#252525"/>
<stop offset="1" stop-color="#B4B4B4"/>
</linearGradient>
<clipPath id="clip0_54_2">
<rect width="755" height="121" fill="white"/>
</clipPath>
</defs>
</svg>

<?xml version="1.0" encoding="UTF-8"?><svg id="a" xmlns="http://www.w3.org/2000/svg" xmlns:xlink="http://www.w3.org/1999/xlink" viewBox="0 0 755.38 121.34"><defs><clipPath id="b"><rect width="755" height="121" style="fill:none;"/></clipPath><linearGradient id="c" x1="-15.2" y1="61.97" x2="770.8" y2="61.97" gradientTransform="translate(0 122) scale(1 -1)" gradientUnits="userSpaceOnUse"><stop offset=".72" stop-color="#252525"/><stop offset="1" stop-color="#b4b4b4"/></linearGradient><linearGradient id="d" x1="-15.2" y1="75.22" x2="770.8" y2="75.22" gradientTransform="translate(0 122) scale(1 -1)" gradientUnits="userSpaceOnUse"><stop offset=".72" stop-color="#252525"/><stop offset="1" stop-color="#b4b4b4"/></linearGradient><linearGradient id="e" x1="-10.2" y1="75.28" x2="775.8" y2="75.28" gradientTransform="translate(0 122) scale(1 -1)" gradientUnits="userSpaceOnUse"><stop offset=".72" stop-color="#252525"/><stop offset="1" stop-color="#b4b4b4"/></linearGradient><linearGradient id="f" x1="-7.2" y1="61.33" x2="778.8" y2="61.33" gradientTransform="translate(0 122) scale(1 -1)" gradientUnits="userSpaceOnUse"><stop offset=".72" stop-color="#252525"/><stop offset="1" stop-color="#b4b4b4"/></linearGradient><linearGradient id="g" x1="-5.2" y1="61.2" x2="780.8" y2="61.2" gradientTransform="translate(0 122) scale(1 -1)" gradientUnits="userSpaceOnUse"><stop offset=".72" stop-color="#252525"/><stop offset="1" stop-color="#b4b4b4"/></linearGradient><linearGradient id="h" x1="-.2" y1="75.28" x2="785.8" y2="75.28" gradientTransform="translate(0 122) scale(1 -1)" gradientUnits="userSpaceOnUse"><stop offset=".72" stop-color="#252525"/><stop offset="1" stop-color="#b4b4b4"/></linearGradient><linearGradient id="i" x1="2.8" y1="61.2" x2="788.8" y2="61.2" gradientTransform="translate(0 122) scale(1 -1)" gradientUnits="userSpaceOnUse"><stop offset=".72" stop-color="#252525"/><stop offset="1" stop-color="#b4b4b4"/></linearGradient></defs><g style="clip-path:url(#b);"><path d="M686.52,93.44l5.89-37.89c1.02-5.8,2.99-10.88,5.89-15.23,2.99-4.35,6.87-7.72,11.65-10.11,4.86-2.39,10.58-3.58,17.15-3.58,5.8,0,10.79,1.19,14.98,3.58,4.27,2.3,7.55,5.46,9.86,9.47,2.3,4.01,3.46,8.45,3.46,13.31,0,.77-.04,1.62-.13,2.56-.09.94-.21,1.88-.38,2.82l-5.5,35.07h-14.59l5.63-36.1c.08-.6.13-1.15.13-1.66.08-.6.13-1.15.13-1.66,0-4.44-1.37-8.02-4.1-10.75-2.73-2.73-6.4-4.1-11.01-4.1-2.99,0-5.8.73-8.45,2.18-2.56,1.37-4.74,3.33-6.53,5.89-1.79,2.56-2.99,5.63-3.58,9.22l-5.76,36.99h-14.72Z" style="fill:url(#c);"/><path d="M656.7,93.44l10.24-65.28h14.72l-10.24,65.28h-14.72ZM676.67,19.07c-2.65,0-4.82-.9-6.53-2.69-1.71-1.79-2.56-3.88-2.56-6.27,0-1.79.43-3.46,1.28-4.99.94-1.54,2.18-2.73,3.71-3.58,1.54-.94,3.24-1.41,5.12-1.41,2.56,0,4.69.85,6.4,2.56,1.71,1.71,2.56,3.84,2.56,6.4,0,1.79-.47,3.46-1.41,4.99-.85,1.54-2.05,2.77-3.58,3.71-1.45.85-3.11,1.28-4.99,1.28Z" style="fill:url(#d);"/><path d="M583.64,93.44L598.49,0h14.59l-5.38,33.79-.13.77c3.33-2.82,6.66-4.82,9.98-6.02,3.41-1.28,6.66-1.92,9.73-1.92,5.12,0,9.56,1.15,13.31,3.46,3.84,2.22,6.83,5.29,8.96,9.22,2.13,3.84,3.2,8.19,3.2,13.06,0,1.11-.13,2.43-.38,3.97-.17,1.45-.34,2.73-.51,3.84l-5.38,33.28h-14.59l5.38-34.56c.17-.94.3-1.83.38-2.69.09-.94.13-1.92.13-2.94,0-2.99-.6-5.5-1.79-7.55-1.11-2.13-2.77-3.75-4.99-4.86-2.13-1.11-4.74-1.66-7.81-1.66s-5.85.68-8.58,2.05c-2.65,1.37-4.91,3.29-6.78,5.76-1.79,2.47-2.94,5.29-3.46,8.45l-6.02,38.02h-14.72Z" style="fill:url(#e);"/><path d="M520.56,93.31l2.05-12.54h32.26c1.79,0,3.28-.34,4.48-1.02,1.28-.68,2.26-1.62,2.94-2.82.77-1.19,1.15-2.47,1.15-3.84,0-1.88-.64-3.41-1.92-4.61-1.28-1.28-3.11-1.92-5.5-1.92h-10.62c-4.1,0-7.64-.73-10.62-2.18-2.9-1.45-5.16-3.5-6.78-6.14-1.54-2.65-2.3-5.72-2.3-9.22s.9-6.95,2.69-10.11c1.88-3.24,4.57-5.85,8.06-7.81,3.58-2.05,7.98-3.07,13.18-3.07h29.31l-2.05,12.54h-28.67c-1.62,0-3.03.34-4.22,1.02-1.11.6-1.96,1.41-2.56,2.43-.6.94-.94,2.01-1.02,3.2,0,1.88.55,3.37,1.66,4.48,1.19,1.11,2.94,1.66,5.25,1.66h10.5c4.27,0,7.85.73,10.75,2.18,2.99,1.45,5.25,3.46,6.78,6.02,1.62,2.56,2.43,5.59,2.43,9.09,0,4.1-1.02,7.89-3.07,11.39-1.96,3.41-4.78,6.14-8.45,8.19-3.67,2.05-7.98,3.07-12.93,3.07h-32.77Z" style="fill:url(#f);"/><path d="M479.93,94.98c-6.14,0-11.65-1.28-16.51-3.84-4.86-2.65-8.75-6.31-11.65-11.01-2.9-4.78-4.35-10.24-4.35-16.38,0-5.21.98-10.03,2.94-14.46,2.05-4.52,4.78-8.49,8.19-11.9,3.5-3.41,7.51-6.06,12.03-7.94,4.52-1.88,9.34-2.82,14.46-2.82,5.97,0,11.39,1.32,16.26,3.97,4.86,2.65,8.7,6.31,11.52,11.01,2.82,4.69,4.22,10.15,4.22,16.38,0,5.12-.94,9.94-2.82,14.46-1.88,4.44-4.52,8.36-7.94,11.78-3.41,3.41-7.38,6.06-11.9,7.94-4.44,1.88-9.26,2.82-14.46,2.82ZM480.7,82.43c4.44,0,8.28-1.15,11.52-3.46,3.24-2.3,5.72-5.25,7.42-8.83,1.71-3.67,2.56-7.55,2.56-11.65,0-3.75-.77-7.08-2.3-9.98-1.54-2.9-3.67-5.16-6.4-6.78-2.73-1.71-5.93-2.56-9.6-2.56-4.27,0-8.02,1.11-11.26,3.33-3.24,2.22-5.8,5.16-7.68,8.83-1.79,3.58-2.69,7.51-2.69,11.78,0,3.58.77,6.87,2.3,9.86,1.54,2.9,3.71,5.21,6.53,6.91,2.82,1.71,6.02,2.56,9.6,2.56Z" style="fill:url(#g);"/><path d="M376.57,93.44L391.42,0h14.59l-8.58,54.27h14.21l21.63-26.11h16.26l-25.09,28.67c5.38,1.37,9.34,4.05,11.9,8.06,2.65,3.93,3.97,8.49,3.97,13.7,0,.85-.04,1.75-.13,2.69-.08.94-.21,1.92-.38,2.94l-1.54,9.22h-14.72l1.54-10.24c.09-.51.17-1.02.26-1.54.09-.6.13-1.15.13-1.66,0-3.75-1.15-6.87-3.46-9.34-2.3-2.47-5.67-3.71-10.11-3.71h-16.38l-4.22,26.5h-14.72Z" style="fill:url(#h);"/><path d="M336.3,94.98c-6.14,0-11.65-1.28-16.51-3.84-4.86-2.65-8.75-6.31-11.65-11.01-2.9-4.78-4.35-10.24-4.35-16.38,0-5.21.98-10.03,2.94-14.46,2.05-4.52,4.78-8.49,8.19-11.9,3.5-3.41,7.51-6.06,12.03-7.94,4.52-1.88,9.34-2.82,14.46-2.82,5.97,0,11.39,1.32,16.26,3.97,4.86,2.65,8.7,6.31,11.52,11.01,2.82,4.69,4.22,10.15,4.22,16.38,0,5.12-.94,9.94-2.82,14.46-1.88,4.44-4.52,8.36-7.94,11.78-3.41,3.41-7.38,6.06-11.9,7.94-4.44,1.88-9.26,2.82-14.46,2.82ZM337.07,82.43c4.44,0,8.28-1.15,11.52-3.46,3.24-2.3,5.72-5.25,7.42-8.83,1.71-3.67,2.56-7.55,2.56-11.65,0-3.75-.77-7.08-2.3-9.98-1.54-2.9-3.67-5.16-6.4-6.78-2.73-1.71-5.93-2.56-9.6-2.56-4.27,0-8.02,1.11-11.26,3.33-3.24,2.22-5.8,5.16-7.68,8.83-1.79,3.58-2.69,7.51-2.69,11.78,0,3.58.77,6.87,2.3,9.86,1.54,2.9,3.71,5.21,6.53,6.91,2.82,1.71,6.02,2.56,9.6,2.56Z" style="fill:url(#i);"/><path d="M347.31,3.84l-13.7,15.74h13.95l13.7-15.74h-13.95Z" style="fill:#5865f2;"/><path d="M252.33,93.44l10.24-65.28h14.72l-10.24,65.28h-14.72ZM272.3,19.07c-2.64,0-4.82-.9-6.53-2.69s-2.56-3.88-2.56-6.27c0-1.79.43-3.46,1.28-4.99.94-1.54,2.18-2.73,3.71-3.58,1.54-.94,3.24-1.41,5.12-1.41,2.56,0,4.69.85,6.4,2.56,1.71,1.71,2.56,3.84,2.56,6.4,0,1.79-.47,3.46-1.41,4.99-.85,1.54-2.05,2.77-3.58,3.71-1.45.85-3.11,1.28-4.99,1.28Z" style="fill:#252525;"/><path d="M213.58,121.34c-5.03,0-8.83-1.54-11.39-4.61-2.65-3.07-3.97-6.91-3.97-11.52,0-4.27,1.11-8.87,3.33-13.82,2.13-4.95,5.42-9.81,9.86-14.59,4.52-4.86,10.15-9.13,16.9-12.8l2.69,11.9c-4.44,2.99-8.06,6.19-10.88,9.6-2.82,3.33-4.91,6.53-6.27,9.6-1.28,3.16-1.92,5.93-1.92,8.32,0,1.71.3,3.03.9,3.97.68,1.02,1.62,1.54,2.82,1.54,1.45,0,2.56-.51,3.33-1.54.85-.94,1.49-2.18,1.92-3.71.43-1.54.73-3.16.9-4.86l4.1-25.09.64-4.48,6.4-41.09h14.72l-10.62,67.84c-.51,3.33-1.28,6.49-2.3,9.47s-2.43,5.68-4.22,8.06c-1.71,2.39-3.97,4.27-6.78,5.63-2.73,1.45-6.1,2.18-10.11,2.18ZM242.51,19.07c-2.65,0-4.82-.9-6.53-2.69-1.71-1.79-2.56-3.88-2.56-6.27,0-1.79.43-3.46,1.28-4.99.94-1.54,2.18-2.73,3.71-3.58,1.54-.94,3.24-1.41,5.12-1.41,2.56,0,4.69.85,6.4,2.56,1.71,1.71,2.56,3.84,2.56,6.4,0,1.79-.47,3.46-1.41,4.99-.85,1.54-2.05,2.77-3.58,3.71-1.45.85-3.12,1.28-4.99,1.28Z" style="fill:#252525;"/><path d="M169,94.98c-6.14,0-11.65-1.28-16.51-3.84-4.86-2.65-8.75-6.31-11.65-11.01-2.9-4.78-4.35-10.24-4.35-16.38,0-5.21.98-10.03,2.94-14.46,2.05-4.52,4.78-8.49,8.19-11.9,3.5-3.41,7.51-6.06,12.03-7.94,4.52-1.88,9.34-2.82,14.46-2.82,5.97,0,11.39,1.32,16.26,3.97,4.86,2.65,8.7,6.31,11.52,11.01,2.82,4.69,4.22,10.15,4.22,16.38,0,5.12-.94,9.94-2.82,14.46-1.88,4.44-4.52,8.36-7.94,11.78-3.41,3.41-7.38,6.06-11.9,7.94-4.44,1.88-9.26,2.82-14.46,2.82ZM169.76,82.43c4.44,0,8.28-1.15,11.52-3.46,3.24-2.3,5.72-5.25,7.42-8.83,1.71-3.67,2.56-7.55,2.56-11.65,0-3.75-.77-7.08-2.3-9.98-1.54-2.9-3.67-5.16-6.4-6.78-2.73-1.71-5.93-2.56-9.6-2.56-4.27,0-8.02,1.11-11.26,3.33-3.24,2.22-5.8,5.16-7.68,8.83-1.79,3.58-2.69,7.51-2.69,11.78,0,3.58.77,6.87,2.3,9.86,1.54,2.9,3.71,5.21,6.53,6.91,2.82,1.71,6.02,2.56,9.6,2.56Z" style="fill:#252525;"/><path d="M61.31,94.98c-4.52,0-8.45-.94-11.78-2.82-3.24-1.88-5.76-4.39-7.55-7.55-1.79-3.24-2.69-6.91-2.69-11.01,0-.94.04-1.96.13-3.07.17-1.11.34-2.22.51-3.33l6.27-38.91c.09-.6.13-1.24.13-1.92.09-.68.13-1.28.13-1.79,0-2.56-.85-4.65-2.56-6.27-1.62-1.71-3.75-2.56-6.4-2.56-1.96,0-3.8.43-5.5,1.28-1.62.85-2.99,2.05-4.1,3.58-1.02,1.45-1.66,3.24-1.92,5.38l-10.62,67.46H0L10.37,27.9c.85-5.46,2.47-10.07,4.86-13.82,2.39-3.84,5.59-6.74,9.6-8.7,4.1-2.05,8.92-3.07,14.46-3.07,4.69,0,8.7.94,12.03,2.82,3.41,1.88,6.02,4.44,7.81,7.68,1.79,3.24,2.69,6.91,2.69,11.01,0,.85-.09,1.75-.26,2.69-.09.94-.21,1.88-.38,2.82l-6.27,39.68c-.09.77-.17,1.49-.26,2.18-.09.68-.13,1.28-.13,1.79,0,2.65.81,4.74,2.43,6.27,1.62,1.54,3.67,2.3,6.14,2.3,3.07,0,5.67-.94,7.81-2.82,2.22-1.96,3.54-4.52,3.97-7.68l6.78-43.14c.85-5.46,2.47-10.07,4.86-13.82,2.47-3.84,5.72-6.74,9.73-8.7,4.01-2.05,8.79-3.07,14.34-3.07,4.78,0,8.83.94,12.16,2.82,3.33,1.88,5.89,4.44,7.68,7.68,1.79,3.24,2.69,6.91,2.69,11.01,0,.85-.04,1.75-.13,2.69-.09.94-.21,1.83-.38,2.69l-10.11,64.26h-15.36l10.37-65.41c.08-.43.13-.98.13-1.66.08-.77.13-1.37.13-1.79,0-2.56-.85-4.65-2.56-6.27-1.62-1.71-3.75-2.56-6.4-2.56-1.96,0-3.8.43-5.5,1.28-1.62.85-2.99,2.05-4.1,3.58-1.02,1.45-1.66,3.24-1.92,5.38l-6.91,43.39c-.77,5.38-2.39,9.98-4.86,13.82-2.47,3.84-5.72,6.78-9.73,8.83-4.01,1.96-8.83,2.94-14.46,2.94Z" style="fill:#5865f2;"/></g></svg>
